images/instagram.svg

<svg width="13" height="13" viewBox="0 0 13 13" fill="none" xmlns="http://www.w3.org/2000/svg">
<path d="M9.85247 3.9422C10.2611 3.9422 10.5924 3.59298 10.5924 3.1622C10.5924 2.73142 10.2611 2.3822 9.85247 2.3822C9.44382 2.3822 9.11255 2.73142 9.11255 3.1622C9.11255 3.59298 9.44382 3.9422 9.85247 3.9422Z" fill="white"/>
<path fill-rule="evenodd" clip-rule="evenodd" d="M3.57471 6.5C3.57471 8.29238 4.95743 9.75 6.65769 9.75C8.35796 9.75 9.74068 8.29238 9.74068 6.5C9.74068 4.70763 8.35796 3.25 6.65769 3.25C4.95743 3.25 3.57471 4.70763 3.57471 6.5ZM5.1162 6.5C5.1162 5.60381 5.80756 4.875 6.65769 4.875C7.50783 4.875 8.19919 5.60381 8.19919 6.5C8.19919 7.39619 7.50783 8.125 6.65769 8.125C5.80756 8.125 5.1162 7.39619 5.1162 6.5Z" fill="white"/>
<path fill-rule="evenodd" clip-rule="evenodd" d="M3.57469 13H9.74066C11.3253 13 12.8236 11.4205 12.8236 9.75V3.25C12.8236 1.5795 11.3253 0 9.74066 0H3.57469C1.99003 0 0.491699 1.5795 0.491699 3.25V9.75C0.491699 11.4205 1.99003 13 3.57469 13ZM2.03319 3.25C2.03319 2.49031 2.85404 1.625 3.57468 1.625H9.74066C10.4613 1.625 11.2821 2.49031 11.2821 3.25V9.75C11.2821 10.5097 10.4613 11.375 9.74066 11.375H3.57468C2.84016 11.375 2.03319 10.5243 2.03319 9.75V3.25Z" fill="white"/>
</svg>

<svg xmlns="http://www.w3.org/2000/svg" width="13" height="13" fill="none" viewBox="0 0 13 13"><path fill="#fff" d="M9.852 3.942c.41 0 .74-.349.74-.78 0-.43-.33-.78-.74-.78-.408 0-.74.35-.74.78s.332.78.74.78"/><path fill="#fff" fill-rule="evenodd" d="M3.575 6.5c0 1.792 1.382 3.25 3.083 3.25 1.7 0 3.083-1.458 3.083-3.25S8.358 3.25 6.658 3.25 3.575 4.708 3.575 6.5m1.541 0c0-.896.692-1.625 1.542-1.625s1.541.729 1.541 1.625-.691 1.625-1.541 1.625S5.116 7.396 5.116 6.5" clip-rule="evenodd"/><path fill="#fff" fill-rule="evenodd" d="M3.575 13H9.74c1.584 0 3.083-1.58 3.083-3.25v-6.5C12.824 1.58 11.325 0 9.74 0H3.575C1.99 0 .492 1.58.492 3.25v6.5C.492 11.42 1.99 13 3.575 13M2.033 3.25c0-.76.821-1.625 1.542-1.625H9.74c.72 0 1.541.865 1.541 1.625v6.5c0 .76-.82 1.625-1.541 1.625H3.575c-.735 0-1.542-.85-1.542-1.625z" clip-rule="evenodd"/></svg>
